!!!!SEGMENT: pl-kk--kk-i-3--005-003_anonim--officium-de-assumptione-de-bmv-alleluia-assumpta-est-maria.krn
!!!cenid: 15xx:572
!!!COM: Anonim
!!!COM-rismID: pe30004985
!!!CDT:
!!!CNT:
!!!OPR: Officium de Assumptione de BMV
!!!OTL: Alleluia. Assumpta est Maria
!!!OMV: 003
!!!PDT:
!!!AGN:
!!!SMS-siglum: PL-Kk
!!!SMS-shelfmark: Kk.I.3
!!!SMS-shelfwork: 005-003 M
!!!SMS-variant:
!!!SMS-altvar:
!!!NIFC-rismSourceID: 1001145497
!!!NIFC-islandoraID: pl-kk:1170
!!!URL-pdf-islandora: https://repozytorium.nifc.pl/islandora/object/pl-kk%3A1170/datastream/PDF/view
!!!URL-scan: https://polish.musicsources.pl/pl/lokalizacje/galeria/rekopisy/5919 @EN{Scan on Polish Music Sources Website} @PL{Skany w portalu Dziedzictwo Muzyki Polskiej w otwartym dostępie}
!!!ONB-nifc: UWAGA: Discantus (s. 12r-v, skan 0014-0015), Tenor (s. 11r, skan 0183), Bassus (s. 9r-v, skan 0312-0313). Następna część: Congaudent angelorum chori
!!!AIN: 1 alto 1 bass 1 tenor
!!!key:
**kern	**text	**kern	**text	**kern	**text
*part3	*part3	*part2	*part2	*part1	*part1
*staff3	*staff3	*staff2	*staff2	*staff1	*staff1
*I"Bassus	*	*I"Tenor	*	*I"Discantus	*
*I'B	*	*I'T	*	*I'A	*
*Ibass	*	*Itenor	*	*Ialto	*
*ICvox	*	*ICvox	*	*ICvox	*
*clefF3	*	*clefC4	*	*clefC3	*
*k[]	*	*k[b-]	*	*k[b-]	*
*F:	*	*F:	*	*F:	*
*M2/1	*	*M2/1	*	*M2/1	*
*met(C|)	*	*met(C|)	*	*met(C|)	*
=1-	=1-	=1-	=1-	=1-	=1-
!LO:TX:t=P:problem=brak B- przy kluczu, ukryte bemole [konsultacja J.I.]	!	!	!	!	!
1F	Al-	1F	Al-	1f	Al-
1C	.	1G	.	1e	.
=2-	=2-	=2-	=2-	=2-	=2-
1BB-y	-le-	0B-	-le-	1f	-le-
2BB-/	.	.	.	2d/	.
*	*	*	*	*2\right	*
2D/	.	.	.	2f\	.
=3-	=3-	=3-	=3-	=3-	=3-
1C	.	1c	.	2e/	.
.	.	.	.	1c	.
1G	.	1d	.	.	.
.	.	.	.	2B-/	.
=4-	=4-	=4-	=4-	=4-	=4-
1C	.	1c	.	2c/	.
.	.	.	.	1g	.
1G	.	1d	.	.	.
.	.	.	.	2g\	.
=5-	=5-	=5-	=5-	=5-	=5-
*	*	*lig	*	*	*
1F	-lu-	1f	lu-	1a	-lu-
1G	.	1d	.	1g	.
*	*	*Xlig	*	*	*
=6-	=6-	=6-	=6-	=6-	=6-
1D	.	1f	.	1a	.
2E/	.	1e	.	0g	.
2C/	.	.	.	.	.
*custos:G	*	*	*	*	*
!LO:LB:g=original	!	!	!	!	!
=7-	=7-	=7-	=7-	=7-	=7-
1G	.	1d	.	.	.
*	*	*	*	*custos:e	*
!	!	!	!	!LO:LB:g=original	!
!LO:TX:a:t=[sc-below]	!	!	!	!LO:TX:a:t=[sc]	!
1C	-[ya]	1c	.	1e	-ẏa
=8-	=8-	=8-	=8-	=8-	=8-
1F	.	1c	-ÿa	0f	.
1D	.	1d	.	.	.
=9-	=9-	=9-	=9-	=9-	=9-
1BB-y	.	1f	.	1d	.
*	*	*custos:e	*	*	*
!	!	!LO:LB:g=original	!	!	!
1C	.	1e	.	1e	.
=10-	=10-	=10-	=10-	=10-	=10-
1D	.	1d	.	1f	.
!LO:TX:t=P:problem=brak dźwięku	!	!	!	!	!
1ryy	.	1f	.	1d	.
=11-	=11-	=11-	=11-	=11-	=11-
2C/	.	1e	.	0g	.
1c	.	.	.	.	.
.	.	1d	.	.	.
2B\	.	.	.	.	.
=12-	=12-	=12-	=12-	=12-	=12-
*	*	*lig	*	*	*
2c\	.	1c	.	1e	.
2C/	.	.	.	.	.
1G	.	1B-	.	1d	.
*	*	*Xlig	*	*	*
=13-	=13-	=13-	=13-	=13-	=13-
*	*	*lig	*	*	*
1D	.	1d	.	1f	.
1G	.	1B-	.	2d/	.
.	.	.	.	1g	.
=14-	=14-	=14-	=14-	=14-	=14-
1C	.	1c	.	.	.
.	.	.	.	2g\	.
*	*	*Xlig	*	*	*
*	*	*lig	*	*	*
0D	.	1A	.	0f	.
=15-	=15-	=15-	=15-	=15-	=15-
.	.	1B-	.	.	.
*	*	*Xlig	*	*	*
1C	.	0c	.	1e	.
=16-	=16-	=16-	=16-	=16-	=16-
2C/	.	.	.	2e/	.
1F	.	.	.	2f\	.
.	.	1B-	.	1g	.
2E/	.	.	.	.	.
*custos:F	*	*	*	*	*
!LO:LB:g=original	!	!	!	!	!
=17-	=17-	=17-	=17-	=17-	=17-
1F	.	1A	.	2c/	.
*	*	*	*	*custos:f	*
!	!	!	!	!LO:LB:g=original	!
.	.	.	.	1f	.
1C	.	1G	.	.	.
.	.	.	.	2e/	.
=18-	=18-	=18-	=18-	=18-	=18-
1D	.	0F	.	0f	.
1D	.	.	.	.	.
=19-	=19-	=19-	=19-	=19-	=19-
1C	.	1G	.	1e	.
1BB-y	.	0B-	.	1f	.
=20-	=20-	=20-	=20-	=20-	=20-
1E-X	.	.	.	1g	.
1C	.	1c	.	1e	.
=21-	=21-	=21-	=21-	=21-	=21-
*	*	*lig	*	*	*
1BB-y	.	1d	.	0f	.
1F	.	1c	.	.	.
*	*	*Xlig	*	*	*
*	*	*custos:B	*	*	*
!	!	!LO:LB:g=original	!	!	!
=22-	=22-	=22-	=22-	=22-	=22-
*	*	*clefC3	*	*	*
*	*	*lig	*	*	*
1G	.	1B-	.	1d	.
1D	.	1A	.	1f	.
=23-	=23-	=23-	=23-	=23-	=23-
1Eny	.	1G	.	1g	.
*	*	*Xlig	*	*	*
1F	.	1A	.	2c/	.
.	.	.	.	2d/	.
=24-	=24-	=24-	=24-	=24-	=24-
2C/	.	0G	.	2e/	.
2BB-n/	.	.	.	1f	.
1C	.	.	.	.	.
.	.	.	.	2e/	.
=25-	=25-	=25-	=25-	=25-	=25-
*	*	*	*	*custos:c	*
!LO:N:vis=1	!	!	!	!	!
0F;	.	0Fl	.	0f;<	.
*custos:F	*	*	*	*	*
!LO:LB:g=original	!	!	!	!LO:PB:g=original	!
=26||-	=26||-	=26||-	=26||-	=26||-	=26||-
*lig	*	*lig	*	*	*
1F	Aſſ-	1F	As-	0c	Aſſ-
1E	.	1G	.	.	.
*Xlig	*	*Xlig	*	*	*
=27-	=27-	=27-	=27-	=27-	=27-
*	*	*lig	*	*	*
1D	-um-	1A	-sum-	0d	-um-
*lig	*	*	*	*	*
1D	.	1B-	.	.	.
*	*	*Xlig	*	*	*
=28-	=28-	=28-	=28-	=28-	=28-
1C	.	1c	.	0e	.
*Xlig	*	*lig	*	*	*
1C	-pta	1c	-ta	.	.
=29-	=29-	=29-	=29-	=29-	=29-
1G	.	1B-	.	2d/	-pta
.	.	.	.	1g	.
2D/	.	1A	.	.	.
2F/	.	.	.	1f	.
=30-	=30-	=30-	=30-	=30-	=30-
1C	.	1G	.	.	.
.	.	.	.	2e/	.
*lig	*	*	*	*	*
1D	.	1F	.	1f	.
*	*	*Xlig	*	*	*
=31-	=31-	=31-	=31-	=31-	=31-
1C	.	1c	.	1e	.
*Xlig	*	*lig	*	*	*
1BB-y	es	1d	est	1f	eſt
=32-	=32-	=32-	=32-	=32-	=32-
1C	.	1c	.	1e,	.
*	*	*Xlig	*	*	*
1F	Ma-	1c	Ma-	1f	Ma-
*	*	*custos:c	*	*	*
!	!	!LO:LB:g=original	!	!	!
=33-	=33-	=33-	=33-	=33-	=33-
*lig	*	*	*	*	*
1E	-ri-	1c	-ri-	1g	-ri-
1D	.	1d	.	1f	.
*Xlig	*	*	*	*	*
=34-	=34-	=34-	=34-	=34-	=34-
*	*	*lig	*	*	*
1BB-y	-a	1d	-a	1f	-a
1C	.	1c	.	1e	.
*	*	*Xlig	*	*	*
=35-	=35-	=35-	=35-	=35-	=35-
1G	.	1B-	.	2d/	.
.	.	.	.	1g	.
1D	.	1A	.	.	.
*	*	*	*	*custos:f	*
!	!	!	!	!LO:LB:g=original	!
.	.	.	.	2f\	.
=36-	=36-	=36-	=36-	=36-	=36-
2E/	.	1G	.	2g\	.
2C/	.	.	.	2e/	.
*custos:G	*	*	*	*	*
!LO:LB:g=original	!	!	!	!	!
1G	in	1G	in	1d	in
=37-	=37-	=37-	=37-	=37-	=37-
1C	.	1c	.	1e	.
2G/	.	1B-	.	2d/	.
2E/	.	.	.	1g	.
=38-	=38-	=38-	=38-	=38-	=38-
1F	.	1A	.	.	.
.	.	.	.	1f	.
1C	.	1G	.	.	.
.	.	.	.	2e/	.
=39-	=39-	=39-	=39-	=39-	=39-
1BB-y	.	1B-	.	1f	.
1D	ce-	1F	ce-	2d/	ce-
.	.	.	.	2B-/	.
=40-	=40-	=40-	=40-	=40-	=40-
*	*	*lig	*	*	*
1C	.	1G	.	1c	.
1c	.	1F	.	1A	.
*	*	*Xlig	*	*	*
=41-	=41-	=41-	=41-	=41-	=41-
*2\right	*	*	*	*	*
2A,\	-lu(m)	1F	-lum	2F/	-lum
1c	gau-	.	.	2f\	gau-
.	.	1c	gau-	2e\	.
2A\	.	.	.	2f\	.
=42-	=42-	=42-	=42-	=42-	=42-
*	*	*lig	*	*	*
1G	.	1d	.	1g	.
*	*	*	*	*custos:e	*
!	!	!	!	!LO:LB:g=original	!
1C	.	1c	.	1e	.
*	*	*Xlig	*	*	*
=43-	=43-	=43-	=43-	=43-	=43-
*	*	*lig	*	*	*
1D	.	1f	.	0d	.
1BB-y	.	1d	.	.	.
*	*	*Xlig	*	*	*
=44-	=44-	=44-	=44-	=44-	=44-
*	*	*lig	*	*	*
1D	.	1f	.	1d	.
1F	.	1c	.	2c/	.
.	.	.	.	1f	.
=45-	=45-	=45-	=45-	=45-	=45-
1F	.	1A	.	.	.
.	.	.	.	2a\	.
*custos:G	*	*Xlig	*	*	*
!LO:PB:g=original	!	!	!	!	!
1G	.	1B-	.	0g	-det
*	*	*custos:c	*	*	*
!	!	!LO:LB:g=original	!	!	!
=46-	=46-	=46-	=46-	=46-	=46-
1C	-det	1c	-det	.	.
1F	e-	1F	e-	1f	e-
=47-	=47-	=47-	=47-	=47-	=47-
1C	-xer-	1G	-xer-	1e,	-xer-
1BB-y	.	0B-	.	1f	.
=48-	=48-	=48-	=48-	=48-	=48-
2BB-y/	.	.	.	2d/	.
2D/	.	.	.	2f/	.
1C	.	1c	.	2e/	.
.	.	.	.	1c	.
=49-	=49-	=49-	=49-	=49-	=49-
*	*	*lig	*	*	*
1G	.	1d	.	.	.
.	.	.	.	2B-/	.
1C	.	1c	.	2c/	.
.	.	.	.	1g	.
*	*	*Xlig	*	*	*
=50-	=50-	=50-	=50-	=50-	=50-
1G	.	1d	.	.	.
.	.	.	.	2g\	.
*	*	*	*	*custos:a	*
!	!	!	!	!LO:LB:g=original	!
*	*	*lig	*	*	*
1F	-ci-	1f	-ci-	1a	-ci-
=51-	=51-	=51-	=51-	=51-	=51-
1G	.	1d	.	1g	.
*	*	*Xlig	*	*	*
*	*	*lig	*	*	*
1D	.	1f	.	1a	.
=52-	=52-	=52-	=52-	=52-	=52-
2E/	.	1d	.	0g	.
2C/	.	.	.	.	.
1G	.	1c	.	.	.
*custos:C	*	*Xlig	*	*	*
!LO:LB:g=original	!	!	!	!	!
=53-	=53-	=53-	=53-	=53-	=53-
!	!	!	!	!LO:TX:b:t=''	!
1C	-tus	1c	-tus	0e	-tus an
1F	an-	1c	an-	.	.
=54-	=54-	=54-	=54-	=54-	=54-
1D	-ge-	1d	-ge-	1f,	-ge-
1BB-y	.	1f	.	1d	.
=55-	=55-	=55-	=55-	=55-	=55-
*	*	*lig	*	*	*
1C	-lo-	1e	-lo-	1e,	-lo-
1D	.	1d	.	1f	.
*	*	*Xlig	*	*	*
=56-	=56-	=56-	=56-	=56-	=56-
1D	.	1f	.	1d	.
2C/	.	1e	.	0g	.
1c	.	.	.	.	.
=57-	=57-	=57-	=57-	=57-	=57-
.	.	1d	.	.	.
2B\	.	.	.	.	.
*	*	*custos:c	*	*	*
!	!	!LO:PB:g=original	!	!	!
2c\	.	1c	.	1e	.
2C/	.	.	.	.	.
=58-	=58-	=58-	=58-	=58-	=58-
1G	.	1B-	.	1d	.
*	*	*lig	*	*	*
!LO:SIC:v:s=1D	!	!	!	!	!
1C	.	1d	.	1f	.
=59-	=59-	=59-	=59-	=59-	=59-
1G	.	1B-	.	2d/	.
.	.	.	.	1g	.
*	*	*Xlig	*	*	*
1C	.	1c	.	.	.
.	.	.	.	2g\	.
=60-	=60-	=60-	=60-	=60-	=60-
0D	.	1A	.	0f	.
.	.	1B-	.	.	.
*custos:C	*	*	*	*custos:e	*
!LO:LB:g=original	!	!	!	!LO:LB:g=original	!
=61-	=61-	=61-	=61-	=61-	=61-
1C	.	1c	.	1e	.
2C/	.	1c	.	2e\	.
1F	.	.	.	2f\	.
=62-	=62-	=62-	=62-	=62-	=62-
.	.	1B-	.	1g	.
2E/	.	.	.	.	.
1F	.	1A	.	2c/	.
.	.	.	.	1f	.
=63-	=63-	=63-	=63-	=63-	=63-
1C	.	1G	.	.	.
.	.	.	.	2e\	.
0D	.	0F	.	0f	.
=64-	=64-	=64-	=64-	=64-	=64-
.	.	.	.	.	.
1C	.	1G	.	1e	.
=65-	=65-	=65-	=65-	=65-	=65-
1BB-y	.	0B-	.	1f	.
1E-X	.	.	.	1g	.
=66-	=66-	=66-	=66-	=66-	=66-
1C	.	1c	.	1e	.
*	*	*lig	*	*	*
1BB-y	.	1d	.	0f	.
=67-	=67-	=67-	=67-	=67-	=67-
1F	.	1c	.	.	.
1G	.	1B-	.	1d	.
=68-	=68-	=68-	=68-	=68-	=68-
1D	.	1A	.	1f	.
*	*	*Xlig	*	*	*
1Eny	.	1G	.	1g	.
=69-	=69-	=69-	=69-	=69-	=69-
1F	.	1A	.	2c/	.
.	.	.	.	1f	.
1C	.	1G	.	.	.
.	.	.	.	2e\	.
=70-	=70-	=70-	=70-	=70-	=70-
!	!	!	!	!LO:N:vis=1	!
0F;	-ru(m)	0Fl	-rum	0f;	-r(um)
==	==	==	==	==	==
*-	*-	*-	*-	*-	*-
!!!system-decoration: [(s1,s2,s3)]
!!!RDF**kern: < = below
!!!RDF**kern: l = terminal long
!!!ENC: Andrzej Kubiczek
!!!END: 2021-12-31
!!!ENC: Marta Lawrence
!!!END: 2022-01-03
